X:201
T:Reel 201
M:4/4
K:Ador
L:1/8
GF|EA, (3A,G,A, EDB,D|EA, (3A,G,A, EDB,D|EA, (3A,A,A, EDB,D|GFGB A2GF|EA, (3A,G,A, EDB,D|EB,DB, G,A,B,D|G^FGA BGAF|GEDB, A,2|B,A,|G,2 (3DE^F GFGD| (3E^FG DB, A,B,CD|G2EF GFGE|DB,G,B, A,DB,D|G2G^F GFAF|GABc dBcB|AF (3FFF EAAF|GEDB, A,2|
